src/images/icons/profile.svg

<svg width="22" height="22" viewBox="0 0 22 22" fill="none" xmlns="http://www.w3.org/2000/svg">
<path d="M11 1C5.477 1 1 5.477 1 11C1 16.523 5.477 21 11 21C16.523 21 21 16.523 21 11C21 5.477 16.523 1 11 1Z" stroke="black" stroke-linecap="round" stroke-linejoin="round"/>
<path d="M3 18C3 18 5.30701 15.0032 10.9995 15.0032C16.692 15.0032 19 18 19 18H3ZM10.9995 11.3178C11.823 11.3178 12.6127 10.985 13.195 10.3926C13.7773 9.8002 14.1045 8.99671 14.1045 8.15892C14.1045 7.32112 13.7773 6.51764 13.195 5.92523C12.6127 5.33281 11.823 5 10.9995 5C10.176 5 9.38622 5.33281 8.80392 5.92523C8.22163 6.51764 7.8945 7.32112 7.8945 8.15892C7.8945 8.99671 8.22163 9.8002 8.80392 10.3926C9.38622 10.985 10.176 11.3178 10.9995 11.3178V11.3178Z" stroke="black" stroke-linecap="round" stroke-linejoin="round"/>
</svg>

<svg width="22" height="22" fill="none" xmlns="http://www.w3.org/2000/svg"><path d="M11 1C5.477 1 1 5.477 1 11s4.477 10 10 10 10-4.477 10-10S16.523 1 11 1Z" stroke="#000" stroke-linecap="round" stroke-linejoin="round"/><path d="M3 18s2.307-2.997 8-2.997c5.692 0 8 2.997 8 2.997H3Zm8-6.682c.823 0 1.613-.333 2.195-.925.582-.593.91-1.396.91-2.234 0-.838-.328-1.641-.91-2.234A3.078 3.078 0 0 0 10.999 5c-.823 0-1.613.333-2.195.925a3.187 3.187 0 0 0-.91 2.234c0 .838.328 1.641.91 2.234a3.078 3.078 0 0 0 2.195.925v0Z" stroke="#000" stroke-linecap="round" stroke-linejoin="round"/></svg>
